**kern	**kern	**dynam
*part1	*part1	*part1
*staff2	*staff1	*
*I"Piano	*	*
*clefF4	*clefG2	*
*k[b-e-]	*k[b-e-]	*
=1	=1	=1
8A: 8c#X:	8en': 8a: 8een:	sf
8r	8r	.
8r	8r	.
=	=	=
8.DL 8.A 8.d	8.fL 8.a 8.dd 8.ff	ff
16fK> 16a>	16ffK 16aa	.
8aJ> 8dd>	8aaJ 8ddd	.
=	=	=
*	*^	*
8.r	[4.ddd [4.fff	8.ddL 8.ff	.
16FKL 16A	.	16fK 16a	.
8AJ 8d	.	8aJ 8dd	.
=	=	=	=
[4.d^^ [4.f	4.ddd_ 4.fff_	[4.dd^^ [4.ff	.
=	=	=	=
4.d] 4.f]	4.ddd] 4.fff]	4.dd] 4.ff]	.
*	*v	*v	*
=	=	=
8e-'L	8f'L	mf
8A'	8cc'	.
8F'J	8ff'J	.
=	=	=
*	*^	*
4B- 4d	(8.ddL	4f	.
.	16ee-K	.	.
8B- 8d	8ddJ)	8f	.
*	*v	*v	*
=	=	=
*-	*-	*-
!!!system-decoration: {(s1,s2)}
!!!RDF**kern: > = above
